X:137
T:Love Lies a-Bleeding. (p)1657.PLFD.138
T:Dove's Catastrophe. (p)1657.PLFD.138
T:Lawyers Leave Your Pleading. (p)1657.PLFD.138
M:4/4
L:1/8
Q:1/2=60
S:Playford, Dancing Master,Supplement to 3rd Ed.,1657
O:England
N:Or Dour's Catastroph
H:1657.
Z:Chris Partington.
K:Gm
GABc d2 G2| g2 ^fg a2 d2| b2 ag fedd|1cdBc A2 G2:|2cdBcA2GA|
|:B2 G>B c2 F>c|B2 G>d c2 B2|\
f2 f>e d>cB>B|[1c>dB>c A2 GA:|[2c>dB>cA2G2|]
